X:1
T:Title
%%score { ( 1 3 ) | 2 }
L:1/8
Q:1/4=100
M:4/4
K:Ab
V:1 treble nm="Grand Piano"
V:3 treble 
V:2 bass 
V:1
 [CE]2 [CE]2 [_C=D]>[=CE] [_DF]>[DG] | [CA]4 [CE]4 | [DF]2 [EA]2 [EG]2 [=DA]2 | [DB]6 z2 | %4
w: H.~Pauline~Gilmour * * * * *||||
 [CE]2 [CE]2 [_C=D]>[=CE] [CA]>[Ec] | [_Ge]4 [Fd]4 | [Ec]2 [=DB]2 [DF]2 [_DG]2 | [CA]6 z2 | %8
w: ||||
 [Fd]2[K:bass] [Fd]2[K:treble] z4 | z4 [EA]4 | B2 B2 [AB]>[AB] [Ac]>[A=d] | G2 A2 z4 | %12
w: ||||
 c2 c2 c>c d>e | e4 d2 [Fc][FB] | A2 c2 B3 [CEA] | [CEA]8 |] %16
w: ||||
V:2
 [A,,A,]2 [A,,A,]2 [A,,A,]>[A,,A,] [A,,A,]>[A,,E,] | [A,,E,]4 [A,,A,]4 | %2
 [D,A,]2 [C,A,]2 [B,,B,]2 [B,,B,]2 | [E,G,]6 z2 | %4
 [A,,A,]2 [A,,A,]2 [A,,A,]>[A,,A,] [A,,E,]>[A,,A,] | [C,A,]4 [D,A,]4 | %6
 [E,A,]2 [F,A,]2 [B,,A,]2 [E,B,]2 | [A,,A,]6 z2 | [D,A,]2 [D,A,]2 [D,A,]>[D,A,] [D,A,]>[D,A,] | %9
 A,>A, A,>A, A,>A, A,>A, | [G,B,E]2 [G,B,E]2 [F,=D]>[F,D] [F,D]2 | %11
 [E,B,]>E, [E,C]>E, [E,D]2[K:treble] [G,EA]2 | [A,EA]2 [A,EA]2 [A,E_G]>[A,EG] [A,B,G]>[A,CG] | %13
 [=A,C_G]4 [B,F]2[K:bass] [D,B,][D,D] | [E,CE]2 [E,A,E]2 [E,DE]3 A,, | A,,8 |] %16
V:3
 x8 | x8 | x8 | x8 | x8 | x8 | x8 | x8 | %8
 z z/[K:bass] [D,A,]/ z z/ [D,A,]/[K:treble] [Fd]>[Fd] [FA]>[=EB] | [Ec]4 C>C C>C | x8 | %11
 e->[B,e-] e->[Ce-] [Ge]2 d2 | x8 | x8 | x8 | x8 |] %16

